X:190
T:Dr. Manson of Spynie
R:Strathspey
B:The Athole Collection
M:C
L:1/8
K:F
A,|D/D/D F>G A>Bc>A|G>Ec>A G/F/E/D/ C>E|D/D/D F>GA>B c>A|
G<E C>E D<D D:|
A|:d>ef>d A>da>d|c>de>f g<c c>e|1 d>ef>d A>da>e|G<E c>E D/D/D DA:|2
d>fe>g f>ba>g|(3fed (3Afe d2d||

